X:175
T:Guid Luck Go Wi' Ye'
C:Joe Buchanan's Scottish Tome - Page 268.1
I:268 1
Z:Carl Allison
C:Jimmy Shand
R:Jig
L:1/8
M:6/8
K:G
D | "G" D2 B,2 D2 | "G"GEG "D7"AFD | "G"Ggg "C"fef | "G"gdB "D7"cAF |
"G"G2 E B,2 D | "G"GFG "D7"AFD | "G"Ggg fef | "G"g3 g2 :|
=f | "C"ecc e/=f/gf | "C"ecc ege | "G"dBB GBB | "G"dge dBG |
"D7"cAA "G"BGG | "D7"AFF "G"GBB | "A7"Add ^cBc | "D7"d3 d2 :|
"D7"cAA "G"BGG | "D7"AFF "G"GDD | "A7"EcA "D7"FEF | "G"G3 G2 |]

